assets/blik2-Bg6dODvM.svg

<svg xmlns="http://www.w3.org/2000/svg" width="172" height="187" fill="none" viewBox="0 0 172 187"><g filter="url(#a)"><ellipse cx="100.08" cy="51.741" fill="#bbc8d4" rx=".574" ry="53.657" transform="rotate(155.616 100.08 51.74)"/></g><g filter="url(#b)" opacity=".2"><ellipse cx="121.855" cy="74.736" fill="#fff" rx="1.575" ry="57.504" transform="rotate(125.275 121.855 74.736)"/><path stroke="#ff9400" stroke-width=".287" d="M168.515 107.77a7 7 0 0 1-.785-.368c-.68-.356-1.656-.927-2.898-1.689-2.482-1.526-6.015-3.818-10.345-6.706-8.658-5.776-20.496-13.933-33.459-23.103S96.433 58.29 88.103 52.048c-4.165-3.121-7.503-5.69-9.768-7.523-1.132-.916-1.995-1.646-2.557-2.169a7 7 0 0 1-.609-.618l-.047-.06.073.023q.273.1.785.369c.68.356 1.656.926 2.898 1.688 2.482 1.526 6.016 3.818 10.345 6.706 8.659 5.776 20.495 13.934 33.458 23.103s24.597 17.615 32.926 23.857c4.165 3.12 7.503 5.689 9.768 7.522 1.133.916 1.995 1.647 2.557 2.17q.423.393.609.617l.048.061z"/></g><g filter="url(#c)"><circle cx="104.827" cy="66.035" r="11.908" fill="#fff" transform="rotate(155.616 104.827 66.035)"/></g><path fill="#fff9f2" d="M74.493 46.619q9.765 0 18.972 4.743 9.207 4.464 14.787 12.555 3.069-.837 6.975-1.395 4.185-.837 8.091-.837 6.696-.279 12.834.558 6.417.837 11.16 3.348 4.743 2.232 6.975 6.417 2.511 4.185 1.395 10.602t-6.696 11.439q-5.58 4.743-13.392 8.091-7.533 3.069-16.461 4.743-8.928 1.395-17.019 1.395-11.718 0-23.157-2.79t-18.972-8.37a126 126 0 0 0-14.508 15.345q-6.696 8.091-11.718 16.461-4.743 8.091-7.533 16.182-2.511 7.812-2.511 14.508 0 12.276 6.696 17.298 6.696 5.301 17.298 5.301 12.555 0 22.32-4.464 10.044-4.464 18.135-9.765 4.743-3.348 9.765-7.533 5.301-4.464 7.254-6.696l1.395-1.395q1.116-.837 1.674-.279t0 1.674a3.5 3.5 0 0 1-.837 1.395q-1.116 1.116-3.348 3.069a105 105 0 0 1-4.464 4.185 134 134 0 0 1-5.301 4.464 117 117 0 0 1-5.022 3.348q-8.649 6.138-19.251 10.602-10.323 4.743-22.878 5.301-17.298.558-28.458-6.138T6.975 157.94q-.279-9.207 3.627-18.414 3.906-9.486 10.323-18.414t14.787-16.74q8.37-8.091 17.019-14.229a38.5 38.5 0 0 1-5.022-8.37q-1.953-4.464-1.953-9.207 0-5.859 2.232-10.602 2.511-4.743 6.417-8.091a24.25 24.25 0 0 1 8.928-5.301 31.2 31.2 0 0 1 10.881-1.953zm28.458 58.869q7.533 0 14.508-1.674 7.254-1.674 12.834-4.743 5.859-3.348 9.765-7.533 4.185-4.464 5.301-9.486 2.232-9.765-3.906-14.229-5.859-4.464-17.019-4.185-3.348.279-7.812 1.116-4.185.837-6.696 1.953 1.674 3.069 2.79 7.254a59 59 0 0 1 1.674 7.812q.279 3.348 0 5.58-.279 1.953-.837 1.395-.558-.279-.558-1.395.279-1.116-.558-4.185-.837-4.185-2.79-8.37-1.953-4.464-3.906-6.975-11.16 4.185-22.878 11.718T62.217 95.165q7.254 5.58 18.135 8.091 10.881 2.232 22.32 2.232zM71.982 50.246q-8.928 0-15.903 6.138-6.696 5.859-6.696 16.461 0 3.906 1.674 8.091a46.3 46.3 0 0 0 4.743 7.533 216 216 0 0 1 23.994-13.671q12.555-6.138 24.273-9.486-6.417-7.254-15.066-11.16-8.37-3.906-16.74-3.906z"/><defs><filter id="a" width="50.055" height="103.481" x="75.053" y="0" color-interpolation-filters="sRGB" filterUnits="userSpaceOnUse"><feFlood flood-opacity="0" result="BackgroundImageFix"/><feBlend in="SourceGraphic" in2="BackgroundImageFix" result="shape"/><feGaussianBlur result="effect1_foregroundBlur_2637_116" stdDeviation="1.435"/></filter><filter id="b" width="99.648" height="72.207" x="72.031" y="38.632" color-interpolation-filters="sRGB" filterUnits="userSpaceOnUse"><feFlood flood-opacity="0" result="BackgroundImageFix"/><feBlend in="SourceGraphic" in2="BackgroundImageFix" result="shape"/><feGaussianBlur result="effect1_foregroundBlur_2637_116" stdDeviation="1.435"/></filter><filter id="c" width="52.515" height="52.515" x="78.57" y="39.778" color-interpolation-filters="sRGB" filterUnits="userSpaceOnUse"><feFlood flood-opacity="0" result="BackgroundImageFix"/><feBlend in="SourceGraphic" in2="BackgroundImageFix" result="shape"/><feGaussianBlur result="effect1_foregroundBlur_2637_116" stdDeviation="7.173"/></filter></defs></svg>

<svg width="172" height="187" viewBox="0 0 172 187" fill="none" xmlns="http://www.w3.org/2000/svg">
<g filter="url(#filter0_f_2637_116)">
<ellipse cx="100.08" cy="51.7406" rx="0.573869" ry="53.6567" transform="rotate(155.616 100.08 51.7406)" fill="#BBC8D4"/>
</g>
<g opacity="0.2" filter="url(#filter1_f_2637_116)">
<ellipse cx="121.855" cy="74.7357" rx="1.5745" ry="57.504" transform="rotate(125.275 121.855 74.7357)" fill="white"/>
<path d="M168.515 107.77C168.333 107.703 168.07 107.58 167.73 107.402C167.05 107.046 166.074 106.475 164.832 105.713C162.35 104.187 158.817 101.895 154.487 99.0068C145.829 93.2308 133.991 85.074 121.028 75.9043C108.065 66.7346 96.4325 58.2887 88.1029 52.0475C83.938 48.9268 80.5998 46.358 78.3351 44.5254C77.2025 43.609 76.3399 42.8787 75.7775 42.3561C75.4955 42.0942 75.2928 41.8873 75.1692 41.7381C75.1512 41.7164 75.1363 41.6957 75.1224 41.6774C75.1442 41.6844 75.1687 41.6917 75.1951 41.7014C75.377 41.7682 75.6391 41.8913 75.9799 42.0699C76.66 42.4263 77.6363 42.9957 78.8777 43.7585C81.3597 45.2838 84.8936 47.5761 89.223 50.4642C97.8816 56.2402 109.718 64.3978 122.681 73.5675C135.644 82.7373 147.278 91.1823 155.607 97.4235C159.772 100.544 163.11 103.113 165.375 104.946C166.508 105.862 167.37 106.593 167.932 107.116C168.214 107.378 168.417 107.584 168.541 107.733C168.559 107.755 168.575 107.776 168.589 107.794C168.566 107.787 168.542 107.779 168.515 107.77Z" stroke="#FF9400" stroke-width="0.286934"/>
</g>
<g filter="url(#filter2_f_2637_116)">
<circle cx="104.827" cy="66.0351" r="11.9078" transform="rotate(155.616 104.827 66.0351)" fill="white"/>
</g>
<path d="M74.493 46.619C81.003 46.619 87.327 48.2 93.465 51.362C99.603 54.338 104.532 58.523 108.252 63.917C110.298 63.359 112.623 62.894 115.227 62.522C118.017 61.964 120.714 61.685 123.318 61.685C127.782 61.499 132.06 61.685 136.152 62.243C140.43 62.801 144.15 63.917 147.312 65.591C150.474 67.079 152.799 69.218 154.287 72.008C155.961 74.798 156.426 78.332 155.682 82.61C154.938 86.888 152.706 90.701 148.986 94.049C145.266 97.211 140.802 99.908 135.594 102.14C130.572 104.186 125.085 105.767 119.133 106.883C113.181 107.813 107.508 108.278 102.114 108.278C94.302 108.278 86.583 107.348 78.957 105.488C71.331 103.628 65.007 100.838 59.985 97.118C54.777 101.768 49.941 106.883 45.477 112.463C41.013 117.857 37.107 123.344 33.759 128.924C30.597 134.318 28.086 139.712 26.226 145.106C24.552 150.314 23.715 155.15 23.715 159.614C23.715 167.798 25.947 173.564 30.411 176.912C34.875 180.446 40.641 182.213 47.709 182.213C56.079 182.213 63.519 180.725 70.029 177.749C76.725 174.773 82.77 171.518 88.164 167.984C91.326 165.752 94.581 163.241 97.929 160.451C101.463 157.475 103.881 155.243 105.183 153.755C105.555 153.383 106.02 152.918 106.578 152.36C107.322 151.802 107.88 151.709 108.252 152.081C108.624 152.453 108.624 153.011 108.252 153.755C108.066 154.313 107.787 154.778 107.415 155.15C106.671 155.894 105.555 156.917 104.067 158.219C102.765 159.521 101.277 160.916 99.603 162.404C97.929 163.892 96.162 165.38 94.302 166.868C92.442 168.17 90.768 169.286 89.28 170.216C83.514 174.308 77.097 177.842 70.029 180.818C63.147 183.98 55.521 185.747 47.151 186.119C35.619 186.491 26.133 184.445 18.693 179.981C11.253 175.517 7.347 168.17 6.975 157.94C6.789 151.802 7.998 145.664 10.602 139.526C13.206 133.202 16.647 127.064 20.925 121.112C25.203 115.16 30.132 109.58 35.712 104.372C41.292 98.978 46.965 94.235 52.731 90.143C50.685 87.539 49.011 84.749 47.709 81.773C46.407 78.797 45.756 75.728 45.756 72.566C45.756 68.66 46.5 65.126 47.988 61.964C49.662 58.802 51.801 56.105 54.405 53.873C57.009 51.455 59.985 49.688 63.333 48.572C66.867 47.27 70.494 46.619 74.214 46.619H74.493ZM102.951 105.488C107.973 105.488 112.809 104.93 117.459 103.814C122.295 102.698 126.573 101.117 130.293 99.071C134.199 96.839 137.454 94.328 140.058 91.538C142.848 88.562 144.615 85.4 145.359 82.052C146.847 75.542 145.545 70.799 141.453 67.823C137.547 64.847 131.874 63.452 124.434 63.638C122.202 63.824 119.598 64.196 116.622 64.754C113.832 65.312 111.6 65.963 109.926 66.707C111.042 68.753 111.972 71.171 112.716 73.961C113.46 76.565 114.018 79.169 114.39 81.773C114.576 84.005 114.576 85.865 114.39 87.353C114.204 88.655 113.925 89.12 113.553 88.748C113.181 88.562 112.995 88.097 112.995 87.353C113.181 86.609 112.995 85.214 112.437 83.168C111.879 80.378 110.949 77.588 109.647 74.798C108.345 71.822 107.043 69.497 105.741 67.823C98.301 70.613 90.675 74.519 82.863 79.541C75.051 84.563 68.169 89.771 62.217 95.165C67.053 98.885 73.098 101.582 80.352 103.256C87.606 104.744 95.046 105.488 102.672 105.488H102.951ZM71.982 50.246C66.03 50.246 60.729 52.292 56.079 56.384C51.615 60.29 49.383 65.777 49.383 72.845C49.383 75.449 49.941 78.146 51.057 80.936C52.359 83.54 53.94 86.051 55.8 88.469C63.426 83.447 71.424 78.89 79.794 74.798C88.164 70.706 96.255 67.544 104.067 65.312C99.789 60.476 94.767 56.756 89.001 54.152C83.421 51.548 77.841 50.246 72.261 50.246H71.982Z" fill="#FFF9F2"/>
<defs>
<filter id="filter0_f_2637_116" x="75.0528" y="-2.0504e-05" width="50.0549" height="103.481" filterUnits="userSpaceOnUse" color-interpolation-filters="sRGB">
<feFlood flood-opacity="0" result="BackgroundImageFix"/>
<feBlend mode="normal" in="SourceGraphic" in2="BackgroundImageFix" result="shape"/>
<feGaussianBlur stdDeviation="1.43467" result="effect1_foregroundBlur_2637_116"/>
</filter>
<filter id="filter1_f_2637_116" x="72.031" y="38.6323" width="99.6476" height="72.2068" filterUnits="userSpaceOnUse" color-interpolation-filters="sRGB">
<feFlood flood-opacity="0" result="BackgroundImageFix"/>
<feBlend mode="normal" in="SourceGraphic" in2="BackgroundImageFix" result="shape"/>
<feGaussianBlur stdDeviation="1.43467" result="effect1_foregroundBlur_2637_116"/>
</filter>
<filter id="filter2_f_2637_116" x="78.5695" y="39.7776" width="52.5147" height="52.5149" filterUnits="userSpaceOnUse" color-interpolation-filters="sRGB">
<feFlood flood-opacity="0" result="BackgroundImageFix"/>
<feBlend mode="normal" in="SourceGraphic" in2="BackgroundImageFix" result="shape"/>
<feGaussianBlur stdDeviation="7.17336" result="effect1_foregroundBlur_2637_116"/>
</filter>
</defs>
</svg>
